packages/katcn/src/icons/svg/location.svg

<svg width="24" height="24" viewBox="0 0 24 24" fill="none" xmlns="http://www.w3.org/2000/svg">
<path fill-rule="evenodd" clip-rule="evenodd" d="M11.0594 1.03372C16.3938 0.588837 20.8873 4.60236 20.9997 9.77731L21 9.79903C21 11.6079 20.4334 13.2985 19.4291 14.7503L19.4191 14.7645L14.3434 21.8361C14.3334 21.8501 14.3229 21.8639 14.3122 21.8774C13.1455 23.3369 10.8509 23.4267 9.72985 21.8317L4.65255 14.7578C3.32905 12.8814 2.63357 10.5124 3.196 8.00522C3.88951 4.24587 7.1674 1.47839 11.0289 1.03673C11.039 1.03557 11.0492 1.03456 11.0594 1.03372ZM11.2409 3.02554C8.15027 3.3853 5.66832 5.58548 5.15986 8.38419C5.15726 8.39848 5.15436 8.41272 5.15114 8.42689C4.72738 10.2929 5.22491 12.0977 6.28461 13.6017L11.3649 20.6798C11.6356 21.0668 12.3108 21.1575 12.7361 20.6456L17.789 13.6056C18.571 12.4725 18.9977 11.1813 19 9.80988C18.9074 5.83162 15.4499 2.68282 11.2409 3.02554Z" fill="black"/>
<path fill-rule="evenodd" clip-rule="evenodd" d="M12 7.90002C10.9506 7.90002 10.1 8.75068 10.1 9.80002C10.1 10.8494 10.9506 11.7 12 11.7C13.0493 11.7 13.9 10.8494 13.9 9.80002C13.9 8.75068 13.0493 7.90002 12 7.90002ZM8.09998 9.80002C8.09998 7.64611 9.84607 5.90002 12 5.90002C14.1539 5.90002 15.9 7.64611 15.9 9.80002C15.9 11.9539 14.1539 13.7 12 13.7C9.84607 13.7 8.09998 11.9539 8.09998 9.80002Z" fill="black"/>
<path fill-rule="evenodd" clip-rule="evenodd" d="M12 7.90002C10.9506 7.90002 10.1 8.75068 10.1 9.80002C10.1 10.8494 10.9506 11.7 12 11.7C13.0493 11.7 13.9 10.8494 13.9 9.80002C13.9 8.75068 13.0493 7.90002 12 7.90002ZM8.09998 9.80002C8.09998 7.64611 9.84607 5.90002 12 5.90002C14.1539 5.90002 15.9 7.64611 15.9 9.80002C15.9 11.9539 14.1539 13.7 12 13.7C9.84607 13.7 8.09998 11.9539 8.09998 9.80002Z" fill="black"/>
<path fill-rule="evenodd" clip-rule="evenodd" d="M12 7.90002C10.9506 7.90002 10.1 8.75068 10.1 9.80002C10.1 10.8494 10.9506 11.7 12 11.7C13.0493 11.7 13.9 10.8494 13.9 9.80002C13.9 8.75068 13.0493 7.90002 12 7.90002ZM8.09998 9.80002C8.09998 7.64611 9.84607 5.90002 12 5.90002C14.1539 5.90002 15.9 7.64611 15.9 9.80002C15.9 11.9539 14.1539 13.7 12 13.7C9.84607 13.7 8.09998 11.9539 8.09998 9.80002Z" fill="black"/>
</svg>

<svg xmlns="http://www.w3.org/2000/svg" fill="none" viewBox="0 0 24 24"><path fill="#000" fill-rule="evenodd" d="M11.06 1.034C16.393.589 20.886 4.602 21 9.777V9.8c0 1.809-.567 3.5-1.57 4.951l-.01.014-5.077 7.072-.03.041c-1.168 1.46-3.462 1.55-4.583-.045l-5.077-7.074c-1.324-1.877-2.02-4.246-1.457-6.753.694-3.76 3.971-6.527 7.833-6.968zm.18 1.992c-3.09.36-5.572 2.56-6.08 5.358l-.009.043c-.424 1.866.074 3.67 1.134 5.175l5.08 7.078c.27.387.946.477 1.371-.034l5.053-7.04c.782-1.133 1.209-2.425 1.211-3.796-.093-3.978-3.55-7.127-7.76-6.784" clip-rule="evenodd"/><path fill="#000" fill-rule="evenodd" d="M12 7.9a1.9 1.9 0 1 0 0 3.8 1.9 1.9 0 0 0 0-3.8M8.1 9.8a3.9 3.9 0 1 1 7.8 0 3.9 3.9 0 0 1-7.8 0" clip-rule="evenodd"/><path fill="#000" fill-rule="evenodd" d="M12 7.9a1.9 1.9 0 1 0 0 3.8 1.9 1.9 0 0 0 0-3.8M8.1 9.8a3.9 3.9 0 1 1 7.8 0 3.9 3.9 0 0 1-7.8 0" clip-rule="evenodd"/><path fill="#000" fill-rule="evenodd" d="M12 7.9a1.9 1.9 0 1 0 0 3.8 1.9 1.9 0 0 0 0-3.8M8.1 9.8a3.9 3.9 0 1 1 7.8 0 3.9 3.9 0 0 1-7.8 0" clip-rule="evenodd"/></svg>
